Dominus_Dark_Funeral/scalable/apps/github.svg

<svg xmlns="http://www.w3.org/2000/svg" width="48" height="48" viewBox="0 0 12.7 12.7"><defs><radialGradient id="a" cx="5.23" cy="289.5" r="5.35" gradientTransform="matrix(1.7986 .5315 -.42618 1.4422 119.2 -130.99)" gradientUnits="userSpaceOnUse"><stop stop-color="#e3d7f4" offset="0"/><stop stop-color="#11002b" offset="1"/></radialGradient></defs><path d="M6.35 284.41c-1.54 0-2.78.3-3.69.88A3.67 3.67 0 0 0 1 288.54c0 1.91 1.54 4.47 2.01 5.2.54.85 1.13 1.61 1.65 2.16.68.7 1.21 1.03 1.69 1.03s1.01-.33 1.69-1.03c.52-.55 1.11-1.31 1.65-2.16.47-.73 2-3.29 2-5.2 0-1.42-.57-2.55-1.65-3.25a6.75 6.75 0 0 0-3.69-.88z" fill="url(#a)" transform="translate(0 -284.3)"/><path d="M6.35.11c-1.54 0-2.78.3-3.69.88A3.67 3.67 0 0 0 1 4.24c0 1.91 1.54 4.47 2.01 5.2.54.85 1.13 1.61 1.65 2.16.68.7 1.21 1.03 1.69 1.03s1.01-.33 1.69-1.03c.52-.55 1.11-1.31 1.65-2.16.47-.73 2-3.29 2-5.2 0-1.42-.57-2.55-1.65-3.25A6.75 6.75 0 0 0 6.35.11zm0 .04c.56.02 1.09.07 1.55.18A5.82 5.82 0 0 1 9.5 1a3.48 3.48 0 0 1 1.55 2.24 4.61 4.61 0 0 1-.13 2.52c-.15.52-.36 1.05-.58 1.53-.44.97-.95 1.8-1.18 2.16-.54.85-1.13 1.61-1.65 2.16-.34.35-.64.6-.92.78a.96.96 0 0 1-.24.1.96.96 0 0 1-.24-.1 4.76 4.76 0 0 1-.92-.78 14.41 14.41 0 0 1-1.65-2.16c-.24-.37-.74-1.19-1.18-2.16-.22-.48-.43-1-.58-1.53a4.6 4.6 0 0 1-.14-2.52 3.73 3.73 0 0 1 .84-1.63 3.65 3.65 0 0 1 1.45-1C4.2.5 4.5.4 4.8.34c.46-.11 1-.16 1.55-.18z" opacity=".2"/><path d="M7.258 1.335c.043 0 .056.12.053.402-.005.228.008.54.021.707a1.357 1.357 0 0 1-.296 1.008c-.159.196-.167.272-.064.55.096.254.05.423-.222.847a5.226 5.226 0 0 0-.315.55l-.11.244.079.306c.045.17.15.416.235.545.402.606.45.82.31 1.442a3.028 3.028 0 0 0-.088.598c.008.133-.018.188-.161.318l-.172.159.111.04c.28.11.55.153.976.16.405.006.48-.007.627-.1.093-.055.18-.143.196-.19.037-.143-.135-.453-.307-.57-.193-.123-.272-.237-.235-.335.042-.103.26-.085.423.037.291.217.429.466.437.804.01.458-.193.635-.82.715a3.413 3.413 0 0 1-.874 0 7.904 7.904 0 0 0-.788-.053c-.18 0-.452-.035-.6-.074a4.736 4.736 0 0 0-1.162-.16c-.336.011-.6-.198-.749-.576a6.376 6.376 0 0 0-.217-.49c-.185-.346-.227-.642-.161-1.119.031-.227.116-.555.188-.73.127-.31.132-.333.084-.727a1.254 1.254 0 0 1 .093-.813c.08-.227.161-.434.188-.468.026-.027.09-.193.14-.365.106-.336.227-.45.55-.513.212-.04.265-.08.402-.355.093-.185.133-.222.239-.222.105 0 .14-.027.195-.175.056-.159.074-.802.027-1.18-.008-.069 0-.138.026-.153.016-.008.175.079.342.2.28.204.312.212.563.204.238-.01.28-.034.521-.24a1.339 1.339 0 0 1 .315-.228zM6.87 2.356c-.124.006-.185.109-.23.23.185.04.376.09.381-.198a.376.376 0 0 0-.15-.032zm-.862.014c-.043 0-.09.01-.151.034.008.286.198.238.384.196-.048-.122-.106-.225-.233-.23z" fill="#1a1a1a"/></svg>

<?xml version="1.0" encoding="UTF-8" standalone="no"?>
<svg
   xmlns:dc="http://purl.org/dc/elements/1.1/"
   xmlns:cc="http://creativecommons.org/ns#"
   xmlns:rdf="http://www.w3.org/1999/02/22-rdf-syntax-ns#"
   xmlns:svg="http://www.w3.org/2000/svg"
   xmlns="http://www.w3.org/2000/svg"
   xmlns:sodipodi="http://sodipodi.sourceforge.net/DTD/sodipodi-0.dtd"
   xmlns:inkscape="http://www.inkscape.org/namespaces/inkscape"
   width="48"
   height="48"
   viewBox="0 0 12.7 12.7"
   version="1.1"
   id="svg15"
   sodipodi:docname="github.svg"
   inkscape:version="0.92.4 (5da689c313, 2019-01-14)">
  <metadata
     id="metadata19">
    <rdf:RDF>
      <cc:Work
         rdf:about="">
        <dc:format>image/svg+xml</dc:format>
        <dc:type
           rdf:resource="http://purl.org/dc/dcmitype/StillImage" />
        <dc:title></dc:title>
      </cc:Work>
    </rdf:RDF>
  </metadata>
  <sodipodi:namedview
     pagecolor="#ffffff"
     bordercolor="#666666"
     borderopacity="1"
     objecttolerance="10"
     gridtolerance="10"
     guidetolerance="10"
     inkscape:pageopacity="0"
     inkscape:pageshadow="2"
     inkscape:window-width="1112"
     inkscape:window-height="480"
     id="namedview17"
     showgrid="false"
     inkscape:zoom="4.9166667"
     inkscape:cx="2.1355932"
     inkscape:cy="24"
     inkscape:window-x="0"
     inkscape:window-y="25"
     inkscape:window-maximized="0"
     inkscape:current-layer="svg15" />
  <defs
     id="defs7">
    <radialGradient
       id="a"
       cx="5.23"
       cy="289.5"
       r="5.35"
       gradientTransform="matrix(1.7986,0.5315,-0.42618,1.4422,119.2,-415.29)"
       gradientUnits="userSpaceOnUse">
      <stop
         stop-color="#e3d7f4"
         offset="0"
         id="stop2" />
      <stop
         stop-color="#11002b"
         offset="1"
         id="stop4" />
    </radialGradient>
  </defs>
  <path
     d="m 6.35,0.11 c -1.54,0 -2.78,0.3 -3.69,0.88 A 3.67,3.67 0 0 0 1,4.24 c 0,1.91 1.54,4.47 2.01,5.2 0.54,0.85 1.13,1.61 1.65,2.16 0.68,0.7 1.21,1.03 1.69,1.03 0.48,0 1.01,-0.33 1.69,-1.03 0.52,-0.55 1.11,-1.31 1.65,-2.16 0.47,-0.73 2,-3.29 2,-5.2 0,-1.42 -0.57,-2.55 -1.65,-3.25 A 6.75,6.75 0 0 0 6.35,0.11 Z"
     id="path9"
     style="fill:url(#a)"
     inkscape:connector-curvature="0" />
  <path
     d="m 6.35,0.11 c -1.54,0 -2.78,0.3 -3.69,0.88 A 3.67,3.67 0 0 0 1,4.24 c 0,1.91 1.54,4.47 2.01,5.2 0.54,0.85 1.13,1.61 1.65,2.16 0.68,0.7 1.21,1.03 1.69,1.03 0.48,0 1.01,-0.33 1.69,-1.03 0.52,-0.55 1.11,-1.31 1.65,-2.16 0.47,-0.73 2,-3.29 2,-5.2 0,-1.42 -0.57,-2.55 -1.65,-3.25 A 6.75,6.75 0 0 0 6.35,0.11 Z m 0,0.04 C 6.91,0.17 7.44,0.22 7.9,0.33 A 5.82,5.82 0 0 1 9.5,1 3.48,3.48 0 0 1 11.05,3.24 4.61,4.61 0 0 1 10.92,5.76 C 10.77,6.28 10.56,6.81 10.34,7.29 9.9,8.26 9.39,9.09 9.16,9.45 8.62,10.3 8.03,11.06 7.51,11.61 7.17,11.96 6.87,12.21 6.59,12.39 A 0.96,0.96 0 0 1 6.35,12.49 0.96,0.96 0 0 1 6.11,12.39 4.76,4.76 0 0 1 5.19,11.61 14.41,14.41 0 0 1 3.54,9.45 C 3.3,9.08 2.8,8.26 2.36,7.29 2.14,6.81 1.93,6.29 1.78,5.76 A 4.6,4.6 0 0 1 1.64,3.24 3.73,3.73 0 0 1 2.48,1.61 3.65,3.65 0 0 1 3.93,0.61 C 4.2,0.5 4.5,0.4 4.8,0.34 5.26,0.23 5.8,0.18 6.35,0.16 Z"
     id="path11"
     inkscape:connector-curvature="0"
     style="opacity:0.2" />
  <path
     d="m 7.258,1.335 c 0.043,0 0.056,0.12 0.053,0.402 -0.005,0.228 0.008,0.54 0.021,0.707 A 1.357,1.357 0 0 1 7.036,3.452 C 6.877,3.648 6.869,3.724 6.972,4.002 7.068,4.256 7.022,4.425 6.75,4.849 a 5.226,5.226 0 0 0 -0.315,0.55 l -0.11,0.244 0.079,0.306 c 0.045,0.17 0.15,0.416 0.235,0.545 0.402,0.606 0.45,0.82 0.31,1.442 A 3.028,3.028 0 0 0 6.861,8.534 C 6.869,8.667 6.843,8.722 6.7,8.852 l -0.172,0.159 0.111,0.04 c 0.28,0.11 0.55,0.153 0.976,0.16 C 8.02,9.217 8.095,9.204 8.242,9.111 8.335,9.056 8.422,8.968 8.438,8.921 8.475,8.778 8.303,8.468 8.131,8.351 7.938,8.228 7.859,8.114 7.896,8.016 7.938,7.913 8.156,7.931 8.319,8.053 8.61,8.27 8.748,8.519 8.756,8.857 8.766,9.315 8.563,9.492 7.936,9.572 a 3.413,3.413 0 0 1 -0.874,0 7.904,7.904 0 0 0 -0.788,-0.053 c -0.18,0 -0.452,-0.035 -0.6,-0.074 A 4.736,4.736 0 0 0 4.512,9.285 C 4.176,9.296 3.912,9.087 3.763,8.709 A 6.376,6.376 0 0 0 3.546,8.219 C 3.361,7.873 3.319,7.577 3.385,7.1 3.416,6.873 3.501,6.545 3.573,6.37 3.7,6.06 3.705,6.037 3.657,5.643 A 1.254,1.254 0 0 1 3.75,4.83 C 3.83,4.603 3.911,4.396 3.938,4.362 3.964,4.335 4.028,4.169 4.078,3.997 4.184,3.661 4.305,3.547 4.628,3.484 4.84,3.444 4.893,3.404 5.03,3.129 5.123,2.944 5.163,2.907 5.269,2.907 5.374,2.907 5.409,2.88 5.464,2.732 5.52,2.573 5.538,1.93 5.491,1.552 5.483,1.483 5.491,1.414 5.517,1.399 5.533,1.391 5.692,1.478 5.859,1.599 6.139,1.803 6.171,1.811 6.422,1.803 6.66,1.793 6.702,1.769 6.943,1.563 A 1.339,1.339 0 0 1 7.258,1.335 Z M 6.87,2.356 C 6.746,2.362 6.685,2.465 6.64,2.586 6.825,2.626 7.016,2.676 7.021,2.388 A 0.376,0.376 0 0 0 6.871,2.356 Z M 6.008,2.37 C 5.965,2.37 5.918,2.38 5.857,2.404 5.865,2.69 6.055,2.642 6.241,2.6 6.193,2.478 6.135,2.375 6.008,2.37 Z"
     id="path13"
     inkscape:connector-curvature="0"
     style="fill:#1a1a1a" />
</svg>
